X:108
T:Husbandman & servingman
%%VWML:SBG-1-2-836-0
F:http://www.vwml.org/record/SBG/1/2/836
Z:Original Sibelius transcriptions by M. & S. Graebe
L:1/8
M:4/4
I:linebreak $
K:F
V:1 treble nm="Piano" snm="Pno."
V:2 treble 
V:3 bass 
V:4 bass 
L:1/4
V:1
"^Serving-man" C2 | C F F F F2 F2 | G3 A B2 G2 | A F z2 A3 F | G2 A2 B2 AG | G6 cA | %6
w: ||||||
 F F F F F2 F2 |$ GABG A2 c2 | A3 G F2 E2 | D2 D2 D2 C2 |"^Husband-man, slower." F3 C C3 B, | A,8 | %12
w: |||* * * No,|no * * *||
 z8 | z6 FE |$ DC z6 | z FFF F3 D | CD C z C3 z | z8 | z6 C2 |"^chorus faster" F2 A2 A2 B2 |$ %20
w: ||||||||
 c4 B2 A2 | A2 G2 G2 A2 | B6 A2 |$ B2 c2 d2 B2 | A4 G4 | F8 | %26
w: ||||||
V:2
 x2 | x8 | x8 | x8 | x8 | x8 | x8 |$ x8 | x8 | x8 | x8 | x8 | x8 | x8 |$ x8 | x8 | x8 | x8 | x8 | %19
 cdcd cdde |$ efef g2 c2 | EFEF EDEF | GAGF ECF_E |$ DFAF B^FGD | C3 F B,4 | A,8 | %26
V:3
 z2 | z8 | z8 | z8 | z8 | z8 | z8 |$ z8 | z8 | z8 | z8 | z8 | F,3 G, A,2 F,2 | C6 z2 |$ %14
 z2 B,A, G,3 C | C z z6 | z3 A, z3 A, | B,CDB, C2 C2 | F,6 z2 | F,6 F,2 |$ F,6 F,2 | C,6 C,2 | %22
 C,6 F,2 |$ C,6 G,,2 | C,4 C,4 | F,8 | %26
V:4
 x | x4 | x4 | x4 | x4 | x4 | x4 |$ x4 | x4 | x4 | x4 | x4 | x4 | x4 |$ x4 | x4 | x4 | x4 | x4 | %19
 C z C z |$ C3/2 D/ E C | C B, G, A, | B,2 (3C/B,/A,/ C |$ B, _E/F,/ F,/^F,/ G, | %24
 G,/E,/F,/C,/ D, E, | x4 | %26

